wp-content/themes/modern-journalist/img/icon-instagram.svg

<?xml version="1.0" encoding="UTF-8"?>
<svg width="18px" height="18px" viewBox="0 0 18 18" version="1.1" xmlns="http://www.w3.org/2000/svg" xmlns:xlink="http://www.w3.org/1999/xlink">
    <!-- Generator: Sketch 54.1 (76490) - https://sketchapp.com -->
    <title>Icon Shape</title>
    <desc>Created with Sketch.</desc>
    <g id="Page-1" stroke="none" stroke-width="1" fill="none" fill-rule="evenodd">
        <g id="Desktop-hd" transform="translate(-923.000000, -2645.000000)" fill="#000000" fill-rule="nonzero">
            <path d="M939,2645 L925,2645 C923.9,2645 923,2645.9 923,2647 L923,2661 C923,2662.101 923.9,2663 925,2663 L939,2663 C940.1,2663 941,2662.101 941,2661 L941,2647 C941,2645.9 940.1,2645 939,2645 Z M931.984,2659.523 C935.042715,2659.52245 937.522,2657.04271 937.522,2653.984 C937.522,2653.646 937.479,2653.32 937.419,2653 L939,2653 L939,2660.216 C939.000002,2660.39952 938.926894,2660.57548 938.796844,2660.70497 C938.666795,2660.83445 938.490519,2660.9068 938.307,2660.906 L925.693,2660.906 C925.509481,2660.9068 925.333205,2660.83445 925.203156,2660.70497 C925.073106,2660.57548 924.999998,2660.39952 925,2660.216 L925,2653 L926.549,2653 C926.488,2653.32 926.445,2653.646 926.445,2653.984 C926.445552,2657.04288 928.925123,2659.52245 931.984,2659.523 L931.984,2659.523 Z M928.523,2653.984 C928.523,2652.07254 930.072542,2650.523 931.984,2650.523 C933.895458,2650.523 935.445,2652.07254 935.445,2653.984 C935.445,2655.89546 933.895458,2657.445 931.984,2657.445 C930.072542,2657.445 928.523,2655.89546 928.523,2653.984 L928.523,2653.984 Z M938.307,2650 L936.692,2650 C936.310275,2649.9989 936.001098,2649.68973 936,2649.308 L936,2647.691 C936,2647.309 936.31,2647 936.691,2647 L938.306,2647 C938.69,2647 939,2647.309 939,2647.691 L939,2649.307 C939,2649.688 938.69,2650 938.307,2650 Z" id="Icon-Shape"></path>
        </g>
    </g>
</svg>

<?xml version="1.0" encoding="utf-8"?>
<!-- Generator: Adobe Illustrator 23.0.2, SVG Export Plug-In . SVG Version: 6.00 Build 0)  -->
<svg version="1.1" id="Layer_1" xmlns="http://www.w3.org/2000/svg" xmlns:xlink="http://www.w3.org/1999/xlink" x="0px" y="0px"
	 viewBox="0 0 18 18" style="enable-background:new 0 0 18 18;" xml:space="preserve">
<style type="text/css">
	.st0{fill:#FFFFFF;}
</style>
<title>Icon Shape</title>
<desc>Created with Sketch.</desc>
<g id="Page-1">
	<g id="Desktop-hd" transform="translate(-923.000000, -2645.000000)">
		<path id="Icon-Shape" class="st0" d="M939,2645h-14c-1.1,0-2,0.9-2,2v14c0,1.1,0.9,2,2,2h14c1.1,0,2-0.9,2-2v-14
			C941,2645.9,940.1,2645,939,2645z M932,2659.5c3.1,0,5.5-2.5,5.5-5.5c0-0.3,0-0.7-0.1-1h1.6v7.2c0,0.2-0.1,0.4-0.2,0.5
			c-0.1,0.1-0.3,0.2-0.5,0.2h-12.6c-0.2,0-0.4-0.1-0.5-0.2c-0.1-0.1-0.2-0.3-0.2-0.5v-7.2h1.5c-0.1,0.3-0.1,0.6-0.1,1
			C926.4,2657,928.9,2659.5,932,2659.5L932,2659.5z M928.5,2654c0-1.9,1.5-3.5,3.5-3.5s3.5,1.5,3.5,3.5c0,1.9-1.5,3.5-3.5,3.5
			S928.5,2655.9,928.5,2654L928.5,2654z M938.3,2650h-1.6c-0.4,0-0.7-0.3-0.7-0.7v-1.6c0-0.4,0.3-0.7,0.7-0.7h1.6
			c0.4,0,0.7,0.3,0.7,0.7v1.6C939,2649.7,938.7,2650,938.3,2650z"/>
	</g>
</g>
</svg>
